X:1
T: Thor and Richard's Reel
C:Muriel A Johnstone
R:Reel
%Q: 232
K:A
M:4/4
L:1/8
cd|ec A2 A2 Bc|dD E2 E2 FG|Aa ga fe dc|d2 B2 B2 cd|
ce A2 A2 Bc|Bd E2 E2 FG|Aa ga fa ed|c2 A2 A2:|
|:fg|aA ce ag fe|fA df eE Ac|eA ce ae dc|d2 B2 B2 dc|
Bd E2 EB cd|ce AG Ae fg|a2 fa fa ed|c2 A2 A2:|
